img/svg/children.svg

<svg xmlns="http://www.w3.org/2000/svg" preserveAspectRatio="xMidYMid" width="63" height="30" viewBox="0 0 63 30"><defs><style>.cls-2 { fill: #9ba9b0; }</style></defs><path d="M47.918 29.875c-8.249 0-14.937-6.688-14.937-14.938 0-8.249 6.688-14.937 14.937-14.937 8.25 0 14.938 6.688 14.938 14.937 0 8.25-6.688 14.938-14.938 14.938zm0-27.875c-4.172 0-7.879 1.994-10.246 5.07 1.197.511 2.421.76 3.833.76 3.083 0 6.735-1.577 7.814-3.374.178-.295.493-.478.837-.485.331-.005.667.162.856.45 2.002 3.043 4.13 4.002 7.599 3.423l.108-.011c-2.316-3.509-6.29-5.833-10.801-5.833zm11.564 7.766c-.174.009-.344.017-.54.05-.724.121-1.411.182-2.064.182-2.752 0-4.91-1.087-6.747-3.385-2.046 2.013-5.793 3.217-8.626 3.217-1.79 0-3.338-.325-4.871-1.021l-.076-.055c-1.005 1.839-1.577 3.945-1.577 6.183 0 7.133 5.804 12.938 12.937 12.938 7.134 0 12.938-5.805 12.938-12.938 0-1.846-.396-3.6-1.096-5.191l-.278.02zm-11.427 14.234c-2.768 0-5.334-1.278-6.864-3.419l1.627-1.162c1.155 1.616 3.113 2.581 5.237 2.581s4.082-.965 5.237-2.581l1.627 1.162c-1.529 2.141-4.095 3.419-6.864 3.419zm4.01-8.19c-1.094 0-1.981-.857-1.981-1.914 0-1.058.887-1.916 1.981-1.916s1.981.858 1.981 1.916c0 1.057-.887 1.914-1.981 1.914zm-9.004 0c-1.094 0-1.98-.857-1.98-1.914 0-1.058.886-1.916 1.98-1.916 1.095 0 1.982.858 1.982 1.916 0 1.057-.887 1.914-1.982 1.914zm-23.919 0c-1.095 0-1.981-.857-1.981-1.914 0-1.058.886-1.916 1.981-1.916 1.094 0 1.981.858 1.981 1.916 0 1.057-.887 1.914-1.981 1.914zm9.003 0c-1.094 0-1.981-.857-1.981-1.914 0-1.058.887-1.916 1.981-1.916s1.981.858 1.981 1.916c0 1.057-.887 1.914-1.981 1.914zm-4.135 8.19c-2.768 0-5.334-1.278-6.864-3.419l1.627-1.162c1.155 1.616 3.113 2.581 5.237 2.581s4.082-.965 5.238-2.581l1.626 1.162c-1.529 2.141-4.095 3.419-6.864 3.419zm-.011-22c-4.181 0-7.894 2.002-10.261 5.088.923.368 2.343.797 3.774.666 2.049-.186 4.871-1.81 5.786-2.42h.001c.11-.073.232-.123.36-.148l.244-.001h.139c.129.025.252.075.363.148l.002.001c.033.022 3.325 2.196 5.786 2.42.55.05.955.536.906 1.086-.048.52-.484.91-.995.91l-.092-.004c-2.322-.211-5.019-1.707-6.159-2.399-1.141.692-3.838 2.188-6.16 2.399-.239.022-.478.032-.713.032-1.777 0-3.4-.568-4.362-.988-.992 1.83-1.557 3.924-1.557 6.147 0 7.133 5.804 12.938 12.938 12.938 3.685 0 7.007-1.557 9.366-4.038.362.583.75 1.146 1.177 1.68-2.701 2.693-6.428 4.358-10.543 4.358-7.48 0-13.657-5.503-14.749-12.678-.35.487-.76.969-1.245 1.414-1.322 1.214-3.171 1.512-4.667 1.512-1.381 0-2.463-.254-2.554-.276-.287-.07-.529-.262-.66-.526-.132-.264-.14-.573-.022-.844.344-.794 2.135-4.812 3.559-5.799 1.2-.831 4.636-1.639 6.009-1.939.383-1.308.949-2.536 1.653-3.67l.027-.08.088-.101c2.654-4.138 7.28-6.888 12.561-6.888 4.115 0 7.842 1.665 10.543 4.358-.427.534-.815 1.098-1.177 1.68-2.359-2.481-5.681-4.038-9.366-4.038zm-19.198 12.322c-.515.357-1.498 2.051-2.322 3.766 1.309.107 3.125.012 4.173-.95 1.673-1.535 2.287-3.672 2.42-4.208-1.741.421-3.688.988-4.271 1.392z" id="path-1" class="cls-2" fill-rule="evenodd"/></svg>

<svg xmlns="http://www.w3.org/2000/svg" xmlns:xlink="http://www.w3.org/1999/xlink" preserveAspectRatio="xMidYMid" width="63" height="30" viewBox="0 0 63 30">
  <defs>
    <style>

      .cls-2 {
        fill: #9ba9b0;
      }
    </style>
  </defs>
  <path d="M47.918,29.875 C39.669,29.875 32.981,23.187 32.981,14.937 C32.981,6.688 39.669,-0.000 47.918,-0.000 C56.168,-0.000 62.856,6.688 62.856,14.937 C62.856,23.187 56.168,29.875 47.918,29.875 ZM47.918,2.000 C43.746,2.000 40.039,3.994 37.672,7.070 C38.869,7.581 40.093,7.830 41.505,7.830 C44.588,7.830 48.240,6.253 49.319,4.456 C49.497,4.161 49.812,3.978 50.156,3.971 C50.487,3.966 50.823,4.133 51.012,4.421 C53.014,7.464 55.142,8.423 58.611,7.844 C58.650,7.837 58.681,7.839 58.719,7.833 C56.403,4.324 52.429,2.000 47.918,2.000 ZM59.482,9.766 C59.308,9.775 59.138,9.783 58.942,9.816 C58.218,9.937 57.531,9.998 56.878,9.998 C54.126,9.998 51.968,8.911 50.131,6.613 C48.085,8.626 44.338,9.830 41.505,9.830 C39.715,9.830 38.167,9.505 36.634,8.809 C36.604,8.796 36.586,8.770 36.558,8.754 C35.553,10.593 34.981,12.699 34.981,14.937 C34.981,22.070 40.785,27.875 47.918,27.875 C55.052,27.875 60.856,22.070 60.856,14.937 C60.856,13.091 60.460,11.337 59.760,9.746 C59.667,9.752 59.571,9.761 59.482,9.766 ZM48.055,24.000 C45.287,24.000 42.721,22.722 41.191,20.581 C41.191,20.581 42.818,19.419 42.818,19.419 C43.973,21.035 45.931,22.000 48.055,22.000 C50.179,22.000 52.137,21.035 53.292,19.419 C53.292,19.419 54.919,20.581 54.919,20.581 C53.390,22.722 50.824,24.000 48.055,24.000 ZM52.065,15.810 C50.971,15.810 50.084,14.953 50.084,13.896 C50.084,12.838 50.971,11.980 52.065,11.980 C53.159,11.980 54.046,12.838 54.046,13.896 C54.046,14.953 53.159,15.810 52.065,15.810 ZM43.061,15.810 C41.967,15.810 41.081,14.953 41.081,13.896 C41.081,12.838 41.967,11.980 43.061,11.980 C44.156,11.980 45.043,12.838 45.043,13.896 C45.043,14.953 44.156,15.810 43.061,15.810 ZM19.142,15.810 C18.047,15.810 17.161,14.953 17.161,13.896 C17.161,12.838 18.047,11.980 19.142,11.980 C20.236,11.980 21.123,12.838 21.123,13.896 C21.123,14.953 20.236,15.810 19.142,15.810 ZM28.145,15.810 C27.051,15.810 26.164,14.953 26.164,13.896 C26.164,12.838 27.051,11.980 28.145,11.980 C29.239,11.980 30.126,12.838 30.126,13.896 C30.126,14.953 29.239,15.810 28.145,15.810 ZM24.010,24.000 C21.242,24.000 18.676,22.722 17.146,20.581 C17.146,20.581 18.773,19.419 18.773,19.419 C19.928,21.035 21.886,22.000 24.010,22.000 C26.134,22.000 28.092,21.035 29.248,19.419 C29.248,19.419 30.874,20.581 30.874,20.581 C29.345,22.722 26.779,24.000 24.010,24.000 ZM23.999,2.000 C19.818,2.000 16.105,4.002 13.738,7.088 C14.661,7.456 16.081,7.885 17.512,7.754 C19.561,7.568 22.383,5.944 23.298,5.334 C23.298,5.334 23.299,5.334 23.299,5.334 C23.409,5.261 23.531,5.211 23.659,5.186 C23.740,5.170 23.821,5.180 23.903,5.185 C23.950,5.187 23.996,5.176 24.042,5.185 C24.171,5.210 24.294,5.260 24.405,5.333 C24.405,5.334 24.406,5.334 24.407,5.334 C24.440,5.356 27.732,7.530 30.193,7.754 C30.743,7.804 31.148,8.290 31.099,8.840 C31.051,9.360 30.615,9.750 30.104,9.750 C30.073,9.750 30.043,9.748 30.012,9.746 C27.690,9.535 24.993,8.039 23.853,7.347 C22.712,8.039 20.015,9.535 17.693,9.746 C17.454,9.768 17.215,9.778 16.980,9.778 C15.203,9.778 13.580,9.210 12.618,8.790 C11.626,10.620 11.061,12.714 11.061,14.937 C11.061,22.070 16.865,27.875 23.999,27.875 C27.684,27.875 31.006,26.318 33.365,23.837 C33.727,24.420 34.115,24.983 34.542,25.517 C31.841,28.210 28.114,29.875 23.999,29.875 C16.519,29.875 10.342,24.372 9.250,17.197 C8.900,17.684 8.490,18.166 8.005,18.611 C6.683,19.825 4.834,20.123 3.338,20.123 C1.957,20.123 0.875,19.869 0.784,19.847 C0.497,19.777 0.255,19.585 0.124,19.321 C-0.008,19.057 -0.016,18.748 0.102,18.477 C0.446,17.683 2.237,13.665 3.661,12.678 C4.861,11.847 8.297,11.039 9.670,10.739 C10.053,9.431 10.619,8.203 11.323,7.069 C11.335,7.043 11.335,7.014 11.350,6.989 C11.373,6.948 11.410,6.924 11.438,6.888 C14.092,2.750 18.718,-0.000 23.999,-0.000 C28.114,-0.000 31.841,1.665 34.542,4.358 C34.115,4.892 33.727,5.456 33.365,6.038 C31.006,3.557 27.684,2.000 23.999,2.000 ZM4.801,14.322 C4.286,14.679 3.303,16.373 2.479,18.088 C3.788,18.195 5.604,18.100 6.652,17.138 C8.325,15.603 8.939,13.466 9.072,12.930 C7.331,13.351 5.384,13.918 4.801,14.322 Z" id="path-1" class="cls-2" fill-rule="evenodd"/>
</svg>
